X: 10371
T: GREENWICH HILL
%R: reel
B: "Edinburgh Repository of Music" v.1 p.37 #1
F: http://digital.nls.uk/special-collections-of-printed-music/pageturner.cfm?id=87776133
Z: 2015 John Chambers <jc:trillian.mit.edu>
M: 2/4
L: 1/16
K: D
|:\
a3fd2d2 | cdec d2A2 |\
defd efge | fagf {f}e4 |\
a3fd2d2 | cdec d2A2 |\
defd efge | f2Te2 d4 :|
|:\
D2D2 D2FD | E2E2E2GE |\
D2D2D2FD | E2FG F2D2 ::\
!p!d2d2Td2AF | d2fd ~e2ge |\
d2d2 d2AF | E2FG F2D2 :|

%%sep 2 1 500
%%sep 1 1 500

